svg/color/ella.svg

<svg height="32" viewBox="0 0 32 32" width="32" xmlns="http://www.w3.org/2000/svg"><g fill="none" fill-rule="evenodd"><circle cx="16" cy="16" fill="#396a28" r="16"/><path d="m18.0726138 13.2121487-2.0726138-2.0726138-2.0867294 2.0867294-2.1638964-2.1638964 4.2506258-6.0623679 4.2795656 6.0051968zm-4.8828943.7376667-2.0501846 2.0501846 2.0726138 2.0726138-2.1563182 2.1563181-6.0558305-4.2289319 5.9900092-4.2498948zm5.5840162 4.136914 2.0867294-2.0867294-2.0643002-2.0643002 2.2253484-2.2253484 5.9784867 4.2896486-6.0443705 4.2686232zm-4.8380359.7094355 2.0643002 2.0643002 2.0501846-2.0501846 2.1823091 2.1823091-4.2324937 6.0074104-4.2037333-6.0644021zm2.0643002-6.2679257 3.4717608 3.4717608-3.4717608 3.4717608-3.4717608-3.4717608z" fill="#fff"/></g></svg>

<svg height="32" width="32" xmlns="http://www.w3.org/2000/svg"><g fill="none" fill-rule="evenodd"><circle cx="16" cy="16" fill="#396a28" r="16"/><path d="M18.073 13.212L16 11.14l-2.087 2.086-2.164-2.164L16 5l4.28 6.005zm-4.883.738L11.14 16l2.072 2.073-2.156 2.156L5 16l5.99-4.25zm5.584 4.137L20.86 16l-2.064-2.064 2.226-2.226L27 16l-6.044 4.269zm-4.838.71L16 20.86l2.05-2.05 2.182 2.183L16 27l-4.204-6.064zM16 12.527L19.472 16 16 19.472 12.528 16z" fill="#fff"/></g></svg>
